; HEADER_BLOCK_START
; generated by OrcaSlicer 2.3.2 on 2026-05-02 at 13:22:21
; total layer number: 174
; filament_density: 1.25,1.24,1.04,1.04
; filament_diameter: 1.75,1.75,1.75,1.75
; max_z_height: 35.00
; filament: 1
; HEADER_BLOCK_END

; THUMBNAIL_BLOCK_START

;
; THUMBNAIL_BLOCK_END

; THUMBNAIL_BLOCK_START

;
; THUMBNAIL_BLOCK_END

; external perimeters extrusion width = 0.60mm
; perimeters extrusion width = 0.50mm
; infill extrusion width = 0.50mm
; solid infill extrusion width = 0.50mm
; top infill extrusion width = 0.42mm
; first layer extrusion width = 0.50mm

; EXECUTABLE_BLOCK_START
EXCLUDE_OBJECT_DEFINE NAME=calicat.drc_id_0_copy_0 CENTER=175,175 POLYGON=[[160.732,184.25],[169.268,160.75],[189.268,160.75],[189.268,181.75],[181.768,189.25],[160.732,189.25],[160.732,184.25]]
M73 P0 R15
M106 S0
M106 P2 S0
;TYPE:Custom
; OrcaSlicer auto-heating suppression:
; M190 S55
; M109 S225
M140 S0
M104 S0
START_PRINT_M3DP EXTRUDER_TEMP=225 BED_TEMP=55 CHAMBER_TEMP=35 ADAPTIVE=1 HEAT_BUMP=0 PRINT_MIN=167.268,158.75 PRINT_MAX=191.268,191.25
T0
M204 S2000
G1 Z3 F600
M83
G1 Y150 F12000
G1 X0 F12000
G1 Z0.2 F600
G1 X0 Y0 E15 F6000
G1 X150 Y0 E15 F6000
G92 E0
G1 Z1 F600
G90
G21
M83 ; use relative distances for extrusion
; filament start gcode
M104 S220
T0
M106 S0
M106 P2 S0
;LAYER_CHANGE
;Z:0.24
;HEIGHT:0.24
;BEFORE_LAYER_CHANGE
;0.24
G92 E0

G1 E-.5 F2400
;_SET_FAN_SPEED_CHANGING_LAYER
SET_VELOCITY_LIMIT ACCEL=2000 ACCEL_TO_DECEL=2000
SET_VELOCITY_LIMIT SQUARE_CORNER_VELOCITY=20
; printing object calicat.drc id:0 copy 0
EXCLUDE_OBJECT_START NAME=calicat.drc_id_0_copy_0
G1 X182.591 Y167.775 F30000
G1 Z.64
G1 Z.24
G1 E.5 F2400
;TYPE:Inner wall
;WIDTH:0.499999
G1 F1800
G1 X182.591 Y162.073 E.24241
G1 X187.945 Y162.073 E.22764
G1 X187.945 Y168.427 E.27015
G1 X182.591 Y168.427 E.22764
G1 X182.591 Y167.815 E.02604
G1 X182.142 Y168.376 F30000
G1 F1800
G1 X182.142 Y161.624 E.28703
G1 X188.394 Y161.624 E.26577
G1 X188.394 Y168.876 E.30829
G1 X182.142 Y168.876 E.26577
G1 X182.142 Y168.416 E.01956
G1 X182.014 Y169.15 F30000
;TYPE:Outer wall
G1 F1800
G1 X181.668 Y169.35
G1 X181.668 Y161.15 E.34861
G1 X188.868 Y161.15 E.3061
G1 X188.868 Y169.35 E.34861
G1 X181.708 Y169.35 E.3044
G1 X181.687 Y169.272
G1 E-.35 F2400
;WIPE_START
G1 F1800
G1 X181.703 Y168.35 E-.15
;WIPE_END
G1 X186.611 Y162.505 Z.64 F30000
G1 X186.862 Y162.207 Z.64
G1 Z.24
G1 E.5 F2400
;TYPE:Bottom surface
;WIDTH:0.519882
G1 F6300
G1 X187.609 Y162.954 E.03856
G1 X187.609 Y163.617 E.02179
G1 X186.401 Y162.409 E.06749
G1 X185.739 Y162.409 E.02179
G1 X187.609 Y164.279 E.10944
G1 X187.609 Y164.941 E.02179
G1 X185.076 Y162.409 E.15144
G1 X184.414 Y162.409 E.02179
G1 X187.609 Y165.604 E.19363
G1 X187.609 Y166.266 E.02179
G1 X183.752 Y162.409 E.23646
G1 X183.089 Y162.409 E.02179
G1 X187.609 Y166.929 E.2799
G1 X187.609 Y167.591 E.02179
G1 X182.927 Y162.909 E.29062
G1 X182.927 Y163.572 E.02179
G1 X187.446 Y168.091 E.27989
G1 X186.784 Y168.091 E.02179
G1 X182.927 Y164.234 E.23645
G1 X182.927 Y164.896 E.02179
G1 X186.121 Y168.091 E.19362
G1 X185.459 Y168.091 E.02179
G1 X182.927 Y165.559 E.15144
G1 X182.927 Y166.221 E.02179
G1 X184.797 Y168.091 E.10943
G1 X184.134 Y168.091 E.02179
M73 P1 R15
G1 X182.927 Y166.883 E.06748
G1 X182.927 Y167.546 E.02179
G1 X183.674 Y168.293 E.03855
G1 E-.35 F2400
;WIPE_START
G1 F6300
G1 X182.967 Y167.586 E-.15
;WIPE_END
G1 X175.38 Y168.418 Z.64 F30000
G1 X175.293 Y168.427 Z.64
G1 Z.24
G1 E.5 F2400
;TYPE:Inner wall
;WIDTH:0.499999
G1 F1800
G1 X170.591 Y168.427 E.1999
G1 X170.591 Y162.073 E.27015
G1 X175.945 Y162.073 E.22764
G1 X175.945 Y168.427 E.27015
G1 X175.333 Y168.427 E.02604
G1 X175.894 Y168.876 F30000
G1 F1800
G1 X170.142 Y168.876 E.24452
G1 X170.142 Y161.624 E.30829
G1 X176.394 Y161.624 E.26577
G1 X176.394 Y168.876 E.30829
G1 X175.934 Y168.876 E.01956
G1 X176.668 Y169.004 F30000
;TYPE:Outer wall
G1 F1800
G1 X176.868 Y169.35
G1 X169.668 Y169.35 E.3061
G1 X169.668 Y161.15 E.34861
G1 X176.868 Y161.15 E.3061
G1 X176.868 Y169.31 E.34691
G1 X176.791 Y169.328
G1 E-.35 F2400
;WIPE_START
G1 F1800
G1 X175.868 Y169.316 E-.15
;WIPE_END
G1 X174.862 Y162.207 Z.64 F30000
G1 Z.24
G1 E.5 F2400
;TYPE:Bottom surface
;WIDTH:0.519881
G1 F6300
G1 X175.609 Y162.954 E.03856
G1 X175.609 Y163.617 E.02179
G1 X174.401 Y162.409 E.06749
G1 X173.739 Y162.409 E.02179
G1 X175.609 Y164.279 E.10944
G1 X175.609 Y164.941 E.02179
G1 X173.076 Y162.409 E.15144
G1 X172.414 Y162.409 E.02179
G1 X175.609 Y165.604 E.19362
G1 X175.609 Y166.266 E.02179
G1 X171.752 Y162.409 E.23646
G1 X171.089 Y162.409 E.02179
G1 X175.609 Y166.929 E.2799
G1 X175.609 Y167.591 E.02179
G1 X170.927 Y162.909 E.29062
G1 X170.927 Y163.572 E.02179
G1 X175.446 Y168.091 E.27989
G1 X174.784 Y168.091 E.02179
G1 X170.927 Y164.234 E.23645
G1 X170.927 Y164.896 E.02179
G1 X174.121 Y168.091 E.19362
G1 X173.459 Y168.091 E.02179
G1 X170.927 Y165.559 E.15144
G1 X170.927 Y166.221 E.02179
G1 X172.797 Y168.091 E.10943
G1 X172.134 Y168.091 E.02179
G1 X170.927 Y166.883 E.06748
G1 X170.927 Y167.546 E.02179
G1 X171.674 Y168.293 E.03855
G1 E-.35 F2400
;WIPE_START
G1 F6300
G1 X170.967 Y167.586 E-.15
;WIPE_END
G1 X173.412 Y174.816 Z.64 F30000
G1 X175.31 Y180.427 Z.64
G1 Z.24
G1 E.5 F2400
;TYPE:Inner wall
;WIDTH:0.499999
G1 F1800
G1 X170.591 Y180.427 E.20063
G1 X170.591 Y174.073 E.27015
G1 X175.945 Y174.073 E.22764
G1 X175.945 Y177.75 E.15633
G1 X175.987 Y178.256 E.02159
G1 X176.155 Y178.605 E.01645
G1 X176.502 Y178.92 E.01992
G1 X177.066 Y179.073 E.02487
G1 X181.53 Y179.071 E.18976
G1 X182.034 Y178.92 E.02238
G1 X182.38 Y178.605 E.01992
G1 X182.548 Y178.256 E.01645
G1 X182.591 Y177.952 E.01308
G1 X182.591 Y174.073 E.1649
G1 X187.945 Y174.073 E.22764
G1 X187.945 Y180.427 E.27015
G1 X181.506 Y180.429 E.27375
G1 X181.075 Y180.541 E.01894
G1 X180.746 Y180.784 E.01738
G1 X180.549 Y181.077 E.01503
G1 X180.474 Y181.296 E.00981
G1 X180.445 Y181.548 E.01082
G1 X180.445 Y187.927 E.27118
G1 X173.435 Y187.927 E.29802
G1 X173.435 Y185.573 E.1001
G1 X176.969 Y185.573 E.15026
G1 X177.415 Y185.481 E.01933
G1 X177.762 Y185.244 E.01786
G1 X177.998 Y184.897 E.01786
G1 X178.091 Y184.452 E.01933
G1 X178.091 Y181.548 E.12342
G1 X178.062 Y181.296 E.01082
G1 X177.987 Y181.077 E.00981
G1 X177.79 Y180.784 E.01503
G1 X177.461 Y180.541 E.01738
G1 X177.163 Y180.444 E.01332
G1 X176.969 Y180.427 E.00827
G1 X175.35 Y180.427 E.06885
G1 X176.176 Y180.876 F30000
G1 F1800
G1 X170.142 Y180.876 E.25653
G1 X170.142 Y173.624 E.30829
G1 X176.394 Y173.624 E.26577
G1 X176.394 Y178.082 E.1895
G1 X176.52 Y178.344 E.01235
G1 X176.727 Y178.533 E.01195
G1 X177.066 Y178.624 E.01492
G1 X181.469 Y178.624 E.18719
G1 X181.808 Y178.533 E.01492
G1 X182.016 Y178.344 E.01195
G1 X182.117 Y178.134 E.00987
G1 X182.142 Y177.952 E.00785
G1 X182.142 Y173.624 E.18397
G1 X188.394 Y173.624 E.26577
G1 X188.394 Y180.876 E.30829
G1 X181.566 Y180.876 E.29025
G1 X181.271 Y180.944 E.01287
M73 P2 R15
G1 X181.074 Y181.09 E.01043
G1 X180.956 Y181.266 E.00902
G1 X180.894 Y181.548 E.0123
G1 X180.894 Y188.376 E.29025
G1 X172.986 Y188.376 E.33616
G1 X172.986 Y185.124 E.13823
G1 X176.969 Y185.124 E.16932
G1 X177.236 Y185.069 E.0116
G1 X177.445 Y184.927 E.01072
G1 X177.587 Y184.719 E.01072
G1 X177.642 Y184.452 E.0116
G1 X177.642 Y181.429 E.12848
G1 X177.461 Y181.09 E.01635
G1 X177.264 Y180.944 E.01043
G1 X176.969 Y180.876 E.01287
G1 X176.216 Y180.876 E.03202
G1 E-.35 F2400
;WIPE_START
G1 F1800
G1 X175.216 Y180.876 E-.15
;WIPE_END
G1 X177.255 Y181.07 Z.64 F30000
G1 Z.24
G1 E.5 F2400
;TYPE:Outer wall
G1 F1800
G1 X176.969 Y181.35
G1 X169.668 Y181.35 E.31041
G1 X169.668 Y173.15 E.34861
G1 X176.868 Y173.15 E.3061
G1 X176.868 Y177.952 E.20413
G1 X176.905 Y178.067 E.00517
G1 X177.066 Y178.15 E.00771
G1 X181.469 Y178.15 E.18719
G1 X181.631 Y178.067 E.00771
G1 X181.668 Y177.952 E.00517
G1 X181.668 Y173.15 E.20413
G1 X188.868 Y173.15 E.3061
G1 X188.868 Y181.35 E.34861
G1 X181.566 Y181.35 E.31041
G1 X181.421 Y181.413 E.00673
G1 X181.368 Y181.548 E.00618
G1 X181.368 Y188.85 E.31041
G1 X172.512 Y188.85 E.37648
G1 X172.512 Y184.65 E.17856
G1 X176.969 Y184.65 E.18948
G1 X177.11 Y184.592 E.00646
G1 X177.168 Y184.452 E.00646
G1 X177.168 Y181.548 E.12342
G1 X177.114 Y181.413 E.00618
G1 X177.006 Y181.366 E.00503
G1 X176.949 Y181.273
G1 E-.35 F2400
;WIPE_START
G1 F1800
G1 X176.006 Y181.364 E-.15
;WIPE_END
G1 X182.386 Y177.174 Z.64 F30000
G1 X186.904 Y174.207 Z.64
G1 Z.24
G1 E.5 F2400
;TYPE:Bottom surface
;WIDTH:0.500132
G1 F6300
G1 X187.609 Y174.912 E.03446
G1 X187.609 Y175.547 E.01975
G1 X186.471 Y174.409 E.06042
G1 X185.836 Y174.409 E.01975
G1 X187.609 Y176.181 E.09885
G1 X187.609 Y176.816 E.01975
G1 X185.202 Y174.409 E.13742
G1 X184.568 Y174.409 E.01975
G1 X187.609 Y177.45 E.17606
G1 X187.609 Y178.085 E.01975
G1 X183.933 Y174.409 E.21517
G1 X183.299 Y174.409 E.01975
G1 X187.609 Y178.719 E.25488
G1 X187.609 Y179.354 E.01975
M73 P2 R14
G1 X182.927 Y174.672 E.27837
G1 X182.927 Y175.306 E.01975
G1 X187.609 Y179.988 E.27837
G1 X187.609 Y180.091 E.00113
G1 X187.077 Y180.091 E.01567
G1 X182.927 Y175.941 E.24485
G1 X182.927 Y176.575 E.01975
G1 X186.443 Y180.091 E.20527
G1 X185.809 Y180.091 E.01974
G1 X182.927 Y177.21 E.16634
G1 X182.927 Y177.844 E.01975
G1 X185.175 Y180.092 E.12778
G1 X184.54 Y180.092 E.01974
G1 X182.849 Y178.4 E.09394
G1 X182.635 Y178.821 E.01338
G1 X183.906 Y180.092 E.06847
G1 X183.272 Y180.092 E.01974
G1 X182.303 Y179.123 E.05022
G1 X182.204 Y179.214 E.00191
G1 X181.861 Y179.316 E.0091
G1 X182.637 Y180.092 E.03866
G1 X182.003 Y180.093 E.01974
G1 X181.318 Y179.407 E.03332
G1 X180.683 Y179.407 E.01975
G1 X181.381 Y180.105 E.03404
G1 X181.31 Y180.113 E.00055
G1 X180.899 Y180.257 E.01199
G1 X180.049 Y179.407 E.04307
G1 X179.414 Y179.407 E.01975
G1 X180.534 Y180.527 E.05935
G1 X180.5 Y180.553 E.00019
G1 X180.269 Y180.896 E.01118
G1 X178.78 Y179.407 E.08162
G1 X178.145 Y179.407 E.01975
G1 X180.126 Y181.388 E.11159
G1 X180.109 Y181.542 E.0025
G1 X180.109 Y182.005 E.01302
G1 X177.309 Y179.205 E.16132
G1 E-.35 F2400
;WIPE_START
G1 F6300
G1 X178.016 Y179.912 E-.15
;WIPE_END
G1 X175.81 Y175.169 Z.64 F30000
G1 Z.24
G1 E.5 F2400
G1 F6300
G1 X175.051 Y174.409 E.03769
G1 X174.416 Y174.409 E.01975
G1 X175.609 Y175.601 E.06373
G1 X175.609 Y176.236 E.01975
G1 X173.782 Y174.409 E.10219
G1 X173.147 Y174.409 E.01975
G1 X175.609 Y176.87 E.14074
G1 X175.609 Y177.505 E.01975
G1 X172.513 Y174.409 E.1794
G1 X171.878 Y174.409 E.01975
G1 X175.638 Y178.168 E.22038
G1 X175.663 Y178.35 E.00335
G1 X175.881 Y178.804 E.0146
G1 X176.332 Y179.214 E.01875
G1 X176.833 Y179.364 E.01536
G1 X180.109 Y182.639 E.1904
G1 X180.109 Y183.274 E.01975
G1 X178.427 Y181.592 E.09334
G1 X178.427 Y182.226 E.01975
G1 X180.109 Y183.908 E.09334
G1 X180.109 Y184.543 E.01975
G1 X178.427 Y182.861 E.09334
G1 X178.427 Y183.495 E.01975
G1 X180.109 Y185.177 E.09334
G1 X180.109 Y185.812 E.01975
G1 X178.427 Y184.13 E.09334
G1 X178.427 Y184.456 E.00802
G1 X178.397 Y184.734 E.00639
G1 X180.109 Y186.446 E.09518
G1 X180.109 Y187.08 E.01975
G1 X178.208 Y185.18 E.1067
G1 X178.001 Y185.484 E.00947
G1 X177.928 Y185.534 E.00085
G1 X179.985 Y187.591 E.11623
G1 X179.35 Y187.591 E.01975
G1 X177.549 Y185.79 E.10062
G1 X177.223 Y185.887 E.00851
G1 X177.029 Y185.904 E.00369
G1 X178.716 Y187.591 E.09363
G1 X178.081 Y187.591 E.01975
G1 X176.399 Y185.909 E.09334
G1 X175.765 Y185.909 E.01975
G1 X177.447 Y187.591 E.09334
G1 X176.812 Y187.591 E.01975
G1 X175.131 Y185.909 E.09334
G1 X174.496 Y185.909 E.01975
G1 X176.178 Y187.591 E.09334
G1 X175.543 Y187.591 E.01975
G1 X173.862 Y185.909 E.09334
G1 X173.771 Y185.909 E.00087
G1 X173.771 Y186.453 E.01617
G1 X174.909 Y187.591 E.06042
G1 X174.275 Y187.591 E.01975
G1 X173.57 Y186.886 E.03446
G1 E-.35 F2400
;WIPE_START
G1 F6300
G1 X174.275 Y187.591 E-.14955
G1 X174.277 Y187.591 E-.00045
;WIPE_END
G1 X177.072 Y180.488 Z.64 F30000
G1 X177.143 Y180.308 Z.64
G1 Z.24
G1 E.5 F2400
G1 F6300
G1 X171.244 Y174.409 E.35642
G1 X170.927 Y174.409 E.00769
G1 X170.927 Y174.726 E.0077
G1 X176.291 Y180.091 E.3219
G1 X175.657 Y180.091 E.01975
G1 X170.927 Y175.361 E.28142
G1 X170.927 Y175.995 E.01975
G1 X175.022 Y180.091 E.24141
G1 X174.388 Y180.091 E.01975
G1 X170.927 Y176.63 E.20186
G1 X170.927 Y177.264 E.01975
G1 X173.754 Y180.091 E.16297
G1 X173.119 Y180.091 E.01975
G1 X170.927 Y177.899 E.12442
G1 X170.927 Y178.533 E.01975
G1 X172.485 Y180.091 E.08579
G1 X171.85 Y180.091 E.01975
G1 X170.927 Y179.168 E.04747
G1 X170.927 Y179.802 E.01975
G1 X171.418 Y180.293 E.02215
G1 E-.35 F2400
;WIPE_START
G1 F6300
G1 X170.927 Y179.802 E-.10408
G1 X170.927 Y179.496 E-.04592
;WIPE_END
G1 X177.973 Y176.562 Z.64 F30000
G1 X183.037 Y174.454 Z.64
G1 Z.24
M73 P3 R14
G1 E.5 F2400
;TYPE:Gap infill
;WIDTH:0.165854
G1 F1800
G1 X183.012 Y174.357 E.00109
G1 X182.815 Y174.347 E.00215
G1 E-.35 F2400
;WIPE_START
G1 F1800
G1 X183.012 Y174.357 E-.09958
G1 X183.037 Y174.454 E-.05042
;WIPE_END
G1 X178.78 Y180.789 Z.64 F30000
G1 X178.394 Y181.363 Z.64
G1 Z.24
G1 E.5 F2400
;WIDTH:0.144385
G1 F1800
G1 X178.273 Y181.142 E.00222
; stop printing object calicat.drc id:0 copy 0
M106 S252
M106 P2 S204
;LAYER_CHANGE
;Z:0.44
;HEIGHT:0.2
;BEFORE_LAYER_CHANGE
;0.44
G92 E0

G1 E-.35 F2400
;WIPE_START
G1 F1800
G1 X178.394 Y181.363 E-.15
;WIPE_END
EXCLUDE_OBJECT_END NAME=calicat.drc_id_0_copy_0
;_SET_FAN_SPEED_CHANGING_LAYER
SET_VELOCITY_LIMIT ACCEL=10000 ACCEL_TO_DECEL=10000
M104 S220 ; set nozzle temperature
M140 S55 ; set bed temperature
; printing object calicat.drc id:0 copy 0
EXCLUDE_OBJECT_START NAME=calicat.drc_id_0_copy_0
G1 F30000
G1 X178.693 Y180.863 Z0.470769
G1 X179.19 Y180.559 Z0.501538
G1 X179.771 Y180.521 Z0.532308
G1 X180.303 Y180.757 Z0.563077
G1 X180.665 Y181.214 Z0.593846
G1 X180.773 Y181.786 Z0.624615
G1 X180.602 Y182.343 Z0.655385
G1 X180.193 Y182.757 Z0.686154
G1 X179.637 Y182.933 Z0.716923
G1 X179.064 Y182.831 Z0.747692
G1 X178.604 Y182.474 Z0.778462
G1 X178.362 Y181.944 Z0.809231
G1 X178.394 Y181.363 Z0.84
G1 X182.553 Y167.767 Z.84
G1 Z.44
G1 E.5 F2400
SET_VELOCITY_LIMIT ACCEL=5000 ACCEL_TO_DECEL=5000
;TYPE:Inner wall
;WIDTH:0.499999
G1 F13858
G1 X182.553 Y162.036 E.20695
G1 X187.982 Y162.036 E.19601
G1 X187.982 Y168.464 E.23212
G1 X182.553 Y168.464 E.19601
G1 X182.553 Y167.807 E.02372
SET_VELOCITY_LIMIT ACCEL=10000 ACCEL_TO_DECEL=10000
G1 X182.096 Y168.421 F30000
SET_VELOCITY_LIMIT ACCEL=5000 ACCEL_TO_DECEL=5000
G1 F13858
G1 X182.096 Y161.579 E.24707
G1 X188.439 Y161.579 E.22902
G1 X188.439 Y168.921 E.26512
G1 X182.096 Y168.921 E.22902
G1 X182.096 Y168.461 E.01661
G1 X181.914 Y169.25 F30000
;TYPE:Outer wall
;WIDTH:0.599999
G1 F12000
G1 X181.568 Y169.45
G1 X181.568 Y161.05 E.36964
G1 X188.968 Y161.05 E.32564
G1 X188.968 Y169.45 E.36964
G1 X181.608 Y169.45 E.32388
G1 X181.587 Y169.372
SET_VELOCITY_LIMIT ACCEL=10000 ACCEL_TO_DECEL=10000
G1 E-.35 F2400
;WIPE_START
G1 F12000
G1 X181.603 Y168.45 E-.15
;WIPE_END
G1 X182.873 Y168.144 Z.84 F30000
G1 Z.44
G1 E.5 F2400
;TYPE:Internal solid infill
;WIDTH:0.499999
G1 F13858
G1 X187.662 Y168.144 E.17291
G1 X187.662 Y162.356 E.20901
G1 X182.873 Y162.356 E.17291
G1 X182.873 Y168.104 E.20757
G1 X183.33 Y167.687 F30000
G1 F13858
G1 X187.205 Y167.687 E.1399
G1 X187.205 Y162.813 E.17601
G1 X183.33 Y162.813 E.1399
G1 X183.33 Y167.647 E.17456
G1 X183.787 Y167.23 F30000
G1 F13858
G1 X186.748 Y167.23 E.10689
G1 X186.748 Y163.27 E.143
G1 X183.787 Y163.27 E.10689
G1 X183.787 Y167.19 E.14156
G1 X184.245 Y166.773 F30000
G1 F13858
G1 X186.291 Y166.773 E.07389
G1 X186.291 Y163.727 E.10999
G1 X184.245 Y163.727 E.07389
G1 X184.245 Y166.733 E.10855
G1 X184.702 Y166.316 F30000
G1 F13858
G1 X185.834 Y166.316 E.04088
G1 X185.834 Y164.184 E.07699
G1 X184.702 Y164.184 E.04088
G1 X184.702 Y166.276 E.07554
G1 X185.099 Y165.919 F30000
;WIDTH:0.3805
G1 F13858
G1 X185.437 Y165.919 E.009
G1 X185.437 Y164.581 E.03567
G1 X185.099 Y164.581 E.009
G1 X185.099 Y165.879 E.0346
G1 E-.35 F2400
;WIPE_START
G1 F15000
G1 X185.099 Y164.879 E-.15
;WIPE_END
G1 X177.93 Y167.498 Z.84 F30000
G1 X175.285 Y168.464 Z.84
G1 Z.44
G1 E.5 F2400
SET_VELOCITY_LIMIT ACCEL=5000 ACCEL_TO_DECEL=5000
;TYPE:Inner wall
;WIDTH:0.499999
G1 F13858
G1 X170.553 Y168.464 E.17085
G1 X170.553 Y162.036 E.23212
